src/lib/packages/icons/src/assets/line/bookmarks-star.svg

<svg width="24" height="24" viewBox="0 0 24 24" fill="none" xmlns="http://www.w3.org/2000/svg">
<path d="M17.4299 1.25H10.571C8.46105 1.25 7.25098 2.45995 7.25098 4.56995V5.25H6.57202C4.43002 5.25 3.25098 6.43005 3.25098 8.57104V22C3.25098 22.268 3.394 22.515 3.625 22.649C3.741 22.716 3.87098 22.75 4.00098 22.75C4.12898 22.75 4.25805 22.717 4.37305 22.651L10.001 19.4351L15.6289 22.651C15.8619 22.784 16.147 22.7829 16.377 22.6479C16.608 22.5139 16.751 22.267 16.751 22V17.004L19.6279 18.651C19.7439 18.717 19.872 18.75 20.001 18.75C20.131 18.75 20.261 18.716 20.377 18.649C20.608 18.515 20.751 18.268 20.751 18V4.56995C20.75 2.45995 19.5399 1.25 17.4299 1.25ZM15.25 20.707L10.3721 17.92C10.1421 17.788 9.85793 17.788 9.62793 17.92L4.75 20.708V8.57202C4.75 7.27902 5.27704 6.75098 6.57104 6.75098H13.428C14.722 6.75098 15.249 7.27902 15.249 8.57202V20.707H15.25ZM19.25 16.707L16.75 15.275V8.57104C16.75 6.42904 15.57 5.25 13.429 5.25H8.75V4.56995C8.75 3.27795 9.27707 2.75 10.5701 2.75H17.429C18.722 2.75 19.249 3.27695 19.249 4.56995V16.707H19.25ZM13.0471 10.75L11.6299 10.545L11.02 9.31396C10.827 8.92396 10.436 8.68201 10 8.68201C9.564 8.68201 9.17398 8.92396 8.97998 9.31396L8.37012 10.545L6.95288 10.75C6.52988 10.811 6.18496 11.102 6.05396 11.509C5.92296 11.915 6.03289 12.351 6.33789 12.646L7.36011 13.639L7.12793 14.988C7.05393 15.417 7.2271 15.843 7.5791 16.1C7.9311 16.357 8.39088 16.392 8.77588 16.188L10 15.548L11.2251 16.189C11.3931 16.277 11.5739 16.3199 11.7529 16.3199C11.9889 16.3199 12.2231 16.246 12.4231 16.1C12.7751 15.843 12.9461 15.418 12.8721 14.99L12.6399 13.639L13.6609 12.647C13.9679 12.351 14.077 11.9141 13.946 11.5081C13.814 11.1021 13.4701 10.811 13.0471 10.75ZM11.4451 12.707C11.1851 12.961 11.065 13.328 11.126 13.691L11.269 14.52L10.5161 14.126C10.1941 13.957 9.80711 13.957 9.48511 14.126L8.73193 14.52L8.87598 13.687C8.93598 13.328 8.81496 12.9611 8.55396 12.7061L7.95093 12.1219L8.78394 12.001C9.14694 11.95 9.46202 11.723 9.62402 11.394L10.001 10.634L10.377 11.392C10.54 11.722 10.8551 11.949 11.2151 12L12.051 12.121L11.4451 12.707Z" fill="currentColor"/>
</svg>

<svg xmlns="http://www.w3.org/2000/svg" width="24" height="24" fill="none"><path fill="currentColor" d="M17.43 1.25h-6.86c-2.11 0-3.32 1.21-3.32 3.32v.68h-.679c-2.142 0-3.321 1.18-3.321 3.321V22a.75.75 0 0 0 1.122.651L10 19.435l5.628 3.216A.75.75 0 0 0 16.75 22v-4.996l2.877 1.647A.752.752 0 0 0 20.75 18V4.57c-.001-2.11-1.211-3.32-3.321-3.32Zm-2.18 19.457-4.878-2.787a.749.749 0 0 0-.744 0L4.75 20.708V8.572c0-1.293.527-1.821 1.821-1.821h6.857c1.294 0 1.821.528 1.821 1.821v12.135h.001Zm4-4-2.5-1.432V8.571c0-2.142-1.18-3.321-3.321-3.321H8.75v-.68c0-1.292.527-1.82 1.82-1.82h6.859c1.293 0 1.82.527 1.82 1.82v12.137h.001Zm-6.203-5.957-1.417-.205-.61-1.231A1.13 1.13 0 0 0 10 8.682c-.436 0-.826.242-1.02.632l-.61 1.231-1.417.205a1.104 1.104 0 0 0-.899.759c-.131.406-.021.842.284 1.137l1.022.993-.232 1.349c-.074.429.1.855.451 1.112.352.257.812.292 1.197.088l1.224-.64 1.225.641a1.136 1.136 0 0 0 1.647-1.199l-.232-1.351 1.02-.992a1.1 1.1 0 0 0 .286-1.139 1.106 1.106 0 0 0-.899-.758Zm-1.602 1.957c-.26.254-.38.621-.319.984l.143.829-.753-.394a1.112 1.112 0 0 0-1.03 0l-.754.394.144-.833a1.116 1.116 0 0 0-.322-.98l-.603-.585.833-.121c.363-.051.678-.278.84-.607l.377-.76.376.758c.163.33.478.557.838.608l.836.121-.606.586Z"/></svg>
